svgs/almanea.svg

<svg width="192" height="192" viewBox="0 0 192 192" fill="none" xmlns="http://www.w3.org/2000/svg">
<path d="M117.18 100.138C134.625 71.4042 151.651 37.2415 168.454 82.027M71.6581 99.6351C85.0486 44.4294 118.472 58.5353 117.107 100.458C117.069 101.475 102.745 148.074 99.7668 167.372M28.8803 123.38C42.3388 45.7934 74.4602 70.7069 71.3905 101.154C71.3905 101.154 62.65 138.812 61.459 158.811M169.853 95.9999C169.853 115.626 162.065 134.448 148.201 148.326C134.337 162.203 115.533 170 95.9268 170C86.2186 170 76.6055 168.086 67.6363 164.367C58.6671 160.648 50.5174 155.197 43.6527 148.326C36.7879 141.454 31.3425 133.297 27.6273 124.319C23.9122 115.34 22 105.718 22 95.9999C22 86.2821 23.9122 76.6594 27.6274 67.6813C31.3426 58.7032 36.788 50.5455 43.6527 43.674C50.5175 36.8025 58.6671 31.3517 67.6363 27.6329C76.6055 23.9141 86.2187 22.0001 95.9268 22.0001C115.533 22.0001 134.337 29.7965 148.201 43.6742C162.064 57.5518 169.853 76.3739 169.853 95.9999Z" stroke="black" stroke-width="12.0003" stroke-linecap="round" stroke-linejoin="round"/>
</svg>

<svg xmlns="http://www.w3.org/2000/svg" width="192" height="192" fill="none"><path stroke="#000" stroke-linecap="round" stroke-linejoin="round" stroke-width="12" d="M117.18 100.138c17.445-28.734 34.471-62.896 51.274-18.111M71.658 99.635c13.39-55.206 46.814-41.1 45.449.823-.038 1.017-14.362 47.616-17.34 66.914M28.88 123.38c13.459-77.587 45.58-52.673 42.51-22.226 0 0-8.74 37.658-9.931 57.657M169.853 96a74.04 74.04 0 0 1-21.652 52.326A73.9 73.9 0 0 1 95.927 170a73.9 73.9 0 0 1-28.29-5.633 73.9 73.9 0 0 1-23.984-16.041 74 74 0 0 1-16.026-24.007 74.07 74.07 0 0 1 0-56.638 74 74 0 0 1 16.026-24.007 73.9 73.9 0 0 1 23.983-16.041A73.9 73.9 0 0 1 95.926 22a73.9 73.9 0 0 1 52.275 21.674A74.04 74.04 0 0 1 169.853 96"/></svg>
